images/star-icon.svg

<svg width="16" height="16" viewBox="0 0 16 16" fill="none" xmlns="http://www.w3.org/2000/svg">
<path fill-rule="evenodd" clip-rule="evenodd" d="M7.3341 2.12662C7.38015 1.98059 7.47155 1.85304 7.59503 1.7625C7.71851 1.67197 7.86764 1.62315 8.02076 1.62315C8.17388 1.62315 8.32301 1.67197 8.44649 1.7625C8.56997 1.85304 8.66138 1.98059 8.70743 2.12662L9.94743 5.93995H13.9474C14.106 5.93395 14.2622 5.98004 14.3921 6.07117C14.5221 6.16231 14.6186 6.29347 14.667 6.44462C14.7153 6.59578 14.7129 6.75862 14.66 6.90825C14.6071 7.05789 14.5067 7.18609 14.3741 7.27328L11.1274 9.62661L12.3674 13.4466C12.4165 13.5921 12.4177 13.7495 12.371 13.8958C12.3242 14.042 12.2319 14.1695 12.1076 14.2596C11.9832 14.3497 11.8333 14.3977 11.6798 14.3965C11.5263 14.3954 11.3771 14.3452 11.2541 14.2533L8.00076 11.8733L4.7541 14.2333C4.6311 14.3252 4.48194 14.3754 4.32839 14.3765C4.17484 14.3777 4.02495 14.3297 3.90061 14.2396C3.77627 14.1495 3.68398 14.022 3.63723 13.8758C3.59049 13.7295 3.59172 13.5721 3.64076 13.4266L4.88076 9.60661L1.6341 7.25328C1.50148 7.16609 1.40106 7.03789 1.34818 6.88825C1.29529 6.73862 1.29284 6.57578 1.34121 6.42463C1.38958 6.27347 1.48611 6.14231 1.61604 6.05117C1.74597 5.96004 1.90217 5.91395 2.06076 5.91995H6.06076L7.3341 2.12662Z" fill="#FDBC15"/>
</svg>

<svg width="16" height="16" fill="none" xmlns="http://www.w3.org/2000/svg"><path fill-rule="evenodd" clip-rule="evenodd" d="M7.334 2.127a.72.72 0 0 1 1.373 0l1.24 3.813h4a.727.727 0 0 1 .427 1.333l-3.247 2.354 1.24 3.82a.72.72 0 0 1-1.113.806l-3.253-2.38-3.247 2.36a.72.72 0 0 1-1.113-.806l1.24-3.82-3.247-2.354a.727.727 0 0 1 .427-1.333h4l1.273-3.793Z" fill="#FDBC15"/></svg>
